svg/24/warning.svg

<svg width="24" height="24" viewBox="0 0 24 24" fill="currentColor" xmlns="http://www.w3.org/2000/svg"><path d="M11.9999 8C12.4142 8 12.7499 8.33579 12.7499 8.75V13.25C12.7499 13.6642 12.4142 14 11.9999 14C11.5857 14 11.2499 13.6642 11.2499 13.25V8.75C11.2499 8.33579 11.5857 8 11.9999 8Z"/><path d="M11.9999 17C12.5522 17 12.9999 16.5523 12.9999 16C12.9999 15.4477 12.5522 15 11.9999 15C11.4477 15 10.9999 15.4477 10.9999 16C10.9999 16.5523 11.4477 17 11.9999 17Z"/><path fill-rule="evenodd" clip-rule="evenodd" d="M13.732 3.94727C12.9622 2.61393 11.0377 2.61393 10.2679 3.94727L2.73199 16.9998C1.96219 18.3332 2.92444 19.9998 4.46404 19.9998H19.5358C21.0754 19.9998 22.0377 18.3332 21.2679 16.9998L13.732 3.94727ZM19.9689 17.7498L12.433 4.69727C12.2405 4.36393 11.7594 4.36393 11.5669 4.69727L4.03103 17.7498C3.83858 18.0832 4.07914 18.4998 4.46404 18.4998H19.5358C19.9207 18.4998 20.1613 18.0832 19.9689 17.7498Z"/></svg>

<svg xmlns="http://www.w3.org/2000/svg" width="24" height="24" fill="currentColor" viewBox="0 0 24 24">
  <path d="M12 8a.75.75 0 0 1 .75.75v4.5a.75.75 0 0 1-1.5 0v-4.5A.75.75 0 0 1 12 8Zm0 9a1 1 0 1 0 0-2 1 1 0 0 0 0 2Z"/>
  <path fill-rule="evenodd" d="M13.732 3.947c-.77-1.333-2.694-1.333-3.464 0L2.732 17c-.77 1.333.192 3 1.732 3h15.072c1.54 0 2.502-1.667 1.732-3L13.732 3.947Zm6.237 13.803L12.433 4.697a.5.5 0 0 0-.866 0L4.03 17.75a.5.5 0 0 0 .433.75h15.072a.5.5 0 0 0 .433-.75Z" clip-rule="evenodd"/>
</svg>
